build/img/cloud-logo-eng.svg

<svg width="133" height="91" viewBox="0 0 133 91" fill="none" xmlns="http://www.w3.org/2000/svg">
<g clip-path="url(#clip0)">
<path d="M110.138 36.2523C109.679 36.2523 109.212 36.2523 108.749 36.2948C107.769 24.7844 97.9134 15.7958 86.2216 15.7958C83.115 15.7999 80.0419 16.4342 77.1903 17.6601C75.113 12.4452 71.5061 7.97238 66.8386 4.82291C62.1711 1.67344 56.6588 -0.00699868 51.0182 2.19086e-05C35.5109 2.19086e-05 22.8935 12.4928 22.8935 27.8477C22.8935 28.2731 22.8935 28.7063 22.9285 29.1434C16.5901 30.0168 10.7814 33.1351 6.5694 37.9254C2.35737 42.7157 0.0248107 48.8565 0.000163581 55.2196C-0.0184778 60.4771 1.55653 65.6182 4.51978 69.9724C7.48302 74.3265 11.697 77.6917 16.612 79.6289C19.2413 80.6964 23.9087 81.3036 24.3054 80.4024C24.4648 80.0427 24.0681 79.6676 23.0257 79.1918C20.3161 77.9747 17.714 76.5334 15.2468 74.8832C10.2839 71.4022 7.66628 67.8168 6.34776 65.4304C4.71443 62.273 3.8712 58.7703 3.88962 55.2196C3.9061 49.4955 6.11189 43.9921 10.0594 39.826C14.0069 35.6599 19.4004 33.1433 25.1455 32.7868C25.409 32.7702 25.6664 32.7004 25.9019 32.5816C26.1374 32.4629 26.3462 32.2977 26.5154 32.0961C26.6846 31.8946 26.8108 31.6608 26.8862 31.4092C26.9616 31.1575 26.9847 30.8933 26.9541 30.6325C26.8435 29.7082 26.7864 28.7784 26.783 27.8477C26.783 14.6278 37.6734 3.86775 51.0182 3.86775C56.2077 3.88408 61.2565 5.54727 65.4295 8.61516C69.6024 11.6831 72.6817 15.9954 74.2188 20.9245C74.3035 21.2014 74.4497 21.456 74.6466 21.6693C74.8434 21.8826 75.086 22.0492 75.3562 22.1569C75.6265 22.2646 75.9176 22.3105 76.2082 22.2913C76.4987 22.2721 76.7812 22.1883 77.0348 22.0461C79.8776 20.4599 83.0874 19.6388 86.347 19.6638C89.6066 19.6888 92.8033 20.559 95.6212 22.1886C98.4391 23.8182 100.781 26.1507 102.415 28.9556C104.048 31.7605 104.918 34.9408 104.938 38.1823V38.4105C104.934 38.6915 104.993 38.97 105.109 39.2264C105.224 39.4828 105.395 39.711 105.609 39.895C105.822 40.0791 106.074 40.2147 106.345 40.2923C106.617 40.3699 106.903 40.3876 107.182 40.3443C108.161 40.1931 109.151 40.1168 110.142 40.1161C115.162 40.1048 119.982 42.0757 123.543 45.5959C127.103 49.116 129.113 53.8975 129.13 58.8901C129.13 65.0205 125.715 71.3249 120.772 74.4423C118.438 75.9545 118.395 76.2408 112.437 79.1802C111.768 79.509 111.029 79.9538 111.243 80.414C111.386 80.7312 112.055 80.8704 112.985 80.8704C115.157 80.8089 117.304 80.388 119.336 79.625C124.143 77.5496 128.082 73.8876 130.487 69.2579C132.893 64.6283 133.617 59.3148 132.538 54.2155C131.458 49.1162 128.642 44.5437 124.564 41.2707C120.487 37.9978 115.398 36.2251 110.157 36.2523H110.138Z" fill="#1D1D1B"/>
<path d="M30.5687 69.9131C30.4832 69.2556 30.0047 68.486 29.223 68.486C28.0328 68.486 27.6983 69.6037 27.6983 70.9922C27.6983 72.3808 28.0872 73.5179 29.2074 73.5179C30.0514 73.5179 30.5182 72.7675 30.6154 72.1294H33.6686C33.3341 74.3224 31.6461 76.2446 29.0752 76.2446C25.9636 76.2446 24.3184 74.1058 24.3184 71.0116C24.3184 67.9174 26.2398 65.7515 29.0907 65.7515C31.7122 65.7515 33.3341 67.7085 33.6181 69.9054L30.5687 69.9131Z" fill="#1D1D1B"/>
<path d="M34.9238 75.9894V62.7192H38.2376V75.9894H34.9238Z" fill="#1D1D1B"/>
<path d="M44.5198 65.8521C47.1725 65.8521 49.4283 67.5887 49.4283 71.0464C49.4283 74.5042 47.1725 76.2292 44.5198 76.2292C41.8672 76.2292 39.6152 74.508 39.6152 71.0464C39.6152 67.5848 41.8672 65.8521 44.5198 65.8521ZM44.5198 73.4986C45.3677 73.4986 46.0134 72.8797 46.0134 71.0464C46.0134 69.2131 45.3677 68.5788 44.5198 68.5788C43.6719 68.5788 43.0302 69.217 43.0302 71.0464C43.0302 72.8759 43.6758 73.487 44.5198 73.487V73.4986Z" fill="#1D1D1B"/>
<path d="M53.6354 76.2291C52.6397 76.2291 51.7957 75.9352 51.3017 75.2583C50.8545 74.6704 50.6211 73.7576 50.6211 72.1293V66.1382H53.9388V71.3906C53.8915 71.8745 53.9762 72.3621 54.1838 72.8023C54.279 72.9308 54.4051 73.0335 54.5505 73.101C54.6959 73.1686 54.856 73.1989 55.0162 73.1891C55.7591 73.1891 56.2064 72.6592 56.2064 71.1933V66.1382H59.5085V75.9854H56.2025V74.6472C55.9741 75.1294 55.6101 75.5354 55.1545 75.8161C54.6989 76.0969 54.1713 76.2403 53.6354 76.2291Z" fill="#1D1D1B"/>
<path d="M70.7893 62.7192V75.9894H67.4755V74.6473C67.227 75.1394 66.8425 75.5507 66.3671 75.8329C65.8918 76.1152 65.3453 76.2567 64.7918 76.2408C62.8004 76.2408 60.9023 74.481 60.9023 71.0774C60.9023 67.6738 62.8082 65.9372 64.7918 65.9372C65.3449 65.9205 65.8913 66.0612 66.3668 66.3428C66.8422 66.6245 67.2269 67.0352 67.4755 67.5268V62.7308L70.7893 62.7192ZM64.4417 71.0658C64.4417 72.4582 65.0407 73.4986 65.9975 73.4986C66.9543 73.4986 67.6078 72.5472 67.6078 71.0658C67.6078 69.5845 66.9271 68.6523 65.9975 68.6523C65.0679 68.6523 64.4573 69.6734 64.4573 71.0658H64.4417Z" fill="#1D1D1B"/>
<path d="M28.9507 86.5559V86.4283C28.9507 85.268 28.2739 84.8812 27.5194 84.8812C27.3448 84.8628 27.1683 84.881 27.0013 84.9348C26.8342 84.9886 26.6805 85.0767 26.5499 85.1934C26.4193 85.3101 26.3149 85.4528 26.2434 85.6123C26.1719 85.7717 26.1348 85.9443 26.1347 86.1189H24.6373C24.7423 84.7188 25.9053 83.7634 27.5699 83.7634C29.2346 83.7634 30.5143 84.5138 30.4754 86.7029C30.4754 87.0471 30.452 87.8632 30.452 88.4743C30.4438 89.2525 30.5115 90.0297 30.6543 90.795H29.258C29.1907 90.4895 29.1491 90.179 29.1335 89.8667C28.6979 90.6054 27.8772 90.9613 26.866 90.9613C25.3685 90.9613 24.3184 90.1607 24.3184 88.9114C24.3184 87.2444 26.4498 86.8112 28.9507 86.5559ZM25.9325 88.9114C25.9325 89.5109 26.4303 89.8667 27.2004 89.8667C28.3245 89.8667 28.9896 89.2943 28.9896 88.1378V87.6157C26.8154 87.8168 25.9325 88.1224 25.9325 88.9114Z" fill="#1D1D1B"/>
<path d="M33.5344 83.133H32.0098V81.6091H33.5344V83.133ZM33.5344 90.8337H32.0098V83.9839H33.5344V90.8337Z" fill="#1D1D1B"/>
<path d="M38.2838 85.477C37.3231 85.477 36.7708 85.8637 36.7708 87.2329V90.8222H35.25V83.984H36.7474V85.2062C36.9054 84.8431 37.1658 84.5333 37.4971 84.3143C37.8285 84.0953 38.2166 83.9766 38.6144 83.9724C38.7444 83.9739 38.8743 83.9829 39.0033 83.9995V85.5272C38.7645 85.4979 38.5244 85.4811 38.2838 85.477Z" fill="#1D1D1B"/>
<path d="M47.4238 86.3279C47.349 85.9658 47.1463 85.6423 46.8523 85.416C46.5584 85.1897 46.1926 85.0755 45.8213 85.0941C44.8762 85.0941 44.0166 85.7942 44.0166 87.4148C44.0166 89.0353 44.8879 89.7354 45.7824 89.7354C46.169 89.7701 46.5548 89.6625 46.8667 89.4329C47.1787 89.2033 47.3949 88.8677 47.4744 88.49H48.9601C48.81 89.2163 48.4062 89.8663 47.8204 90.325C47.2345 90.7837 46.5043 91.0215 45.7591 90.9963C43.7599 90.9963 42.4414 89.4492 42.4414 87.4186C42.4414 85.3881 43.7755 83.8294 45.8213 83.8294C46.5513 83.8064 47.2651 84.046 47.8317 84.5043C48.3983 84.9626 48.7796 85.6087 48.9057 86.3241L47.4238 86.3279Z" fill="#1D1D1B"/>
<path d="M53.0947 91.0002C51.4145 91.0002 49.6992 89.894 49.6992 87.4225C49.6992 84.951 51.4145 83.8333 53.0947 83.8333C54.775 83.8333 56.4863 84.9549 56.4863 87.4225C56.4863 89.8901 54.7711 91.0002 53.0947 91.0002ZM54.9111 87.4225C54.9111 85.8445 54.0515 85.0671 53.0947 85.0671C52.1379 85.0671 51.2745 85.8406 51.2745 87.4225C51.2745 89.0044 52.134 89.7664 53.0947 89.7664C54.0554 89.7664 54.9111 89.0005 54.9111 87.4109V87.4225Z" fill="#1D1D1B"/>
<path d="M61.3496 83.833C63.0143 83.833 63.6833 84.9005 63.6833 86.5404V90.8413H62.1586V86.9001C62.1586 85.9718 62.0186 85.0668 60.8517 85.0668C59.6849 85.0668 59.2532 85.9602 59.2532 87.1941V90.8336H57.7285V83.9838H59.2532V84.9392C59.4637 84.5784 59.7718 84.2835 60.1423 84.088C60.5129 83.8924 60.9311 83.8041 61.3496 83.833Z" fill="#1D1D1B"/>
<path d="M71.3759 81.6091V90.8375H69.8513V89.9364C69.6362 90.2797 69.3328 90.5598 68.9725 90.7474C68.6121 90.9351 68.2078 91.0236 67.8015 91.0038C66.1757 91.0038 64.8066 89.6153 64.8066 87.4146C64.8066 85.2139 66.1757 83.8369 67.8015 83.8369C68.2078 83.8171 68.6121 83.9057 68.9725 84.0934C69.3328 84.281 69.6362 84.561 69.8513 84.9044V81.6091H71.3759ZM66.3935 87.4107C66.3935 88.8611 67.1248 89.7662 68.136 89.7662C69.1473 89.7662 69.9135 88.9926 69.9135 87.4107C69.9135 85.8288 69.1356 85.0669 68.136 85.0669C67.1364 85.0669 66.3935 85.9719 66.3935 87.4107Z" fill="#1D1D1B"/>
<path d="M74.6125 83.133H73.0879V81.6091H74.6125V83.133ZM74.6125 90.8337H73.0879V83.9839H74.6125V90.8337Z" fill="#1D1D1B"/>
<path d="M78.0691 82.1777V83.984H79.4498V85.0901H78.0691V88.8186C78.0691 89.5187 78.2363 89.685 78.8859 89.685H79.4382V90.8453H78.3102C76.84 90.8453 76.5444 90.4585 76.5444 89.0507V85.0901H75.5215V83.9917H76.5444V82.1855L78.0691 82.1777Z" fill="#1D1D1B"/>
<path d="M82.2044 83.133H80.6797V81.6091H82.2044V83.133ZM82.2044 90.8337H80.6797V83.9839H82.2044V90.8337Z" fill="#1D1D1B"/>
<path d="M86.8525 91.0002C85.1723 91.0002 83.457 89.894 83.457 87.4225C83.457 84.951 85.1723 83.8333 86.8525 83.8333C88.5328 83.8333 90.2364 84.9549 90.2364 87.4109C90.2364 89.8669 88.5289 91.0002 86.8525 91.0002ZM88.6806 87.4109C88.6806 85.8329 87.821 85.0555 86.8642 85.0555C85.9074 85.0555 85.0439 85.829 85.0439 87.4109C85.0439 88.9928 85.9035 89.7547 86.8642 89.7547C87.8249 89.7547 88.6806 89.0005 88.6806 87.4109Z" fill="#1D1D1B"/>
<path d="M95.1055 83.8332C96.7702 83.8332 97.4392 84.9006 97.4392 86.5406V90.8415H95.9145V86.9003C95.9145 85.972 95.7745 85.067 94.6076 85.067C93.4408 85.067 93.009 85.9604 93.009 87.1942V90.8337H91.4844V83.984H93.009V84.9393C93.2193 84.5782 93.5272 84.2831 93.8979 84.0875C94.2685 83.8919 94.6869 83.8038 95.1055 83.8332Z" fill="#1D1D1B"/>
<path d="M101.993 89.7315C102.771 89.7315 103.413 89.4143 103.681 88.7761H105.182C104.986 89.4375 104.574 90.0147 104.01 90.4162C103.446 90.8178 102.764 91.0205 102.071 90.9923C99.8578 90.9923 98.5898 89.3138 98.5898 87.3528C98.5898 85.2913 100.013 83.8254 101.97 83.8254C104.082 83.8254 105.4 85.5311 105.272 87.8363H100.126C100.227 89.1165 101.126 89.7315 101.993 89.7315ZM103.708 86.7262C103.708 86.4986 103.662 86.2733 103.573 86.0634C103.485 85.8535 103.355 85.6632 103.192 85.5034C103.029 85.3437 102.835 85.2178 102.623 85.1329C102.41 85.048 102.183 85.0059 101.954 85.009C101.484 84.9985 101.028 85.1729 100.686 85.4944C100.343 85.8158 100.142 86.2584 100.126 86.7262H103.708Z" fill="#1D1D1B"/>
<path d="M109.547 85.477C108.587 85.477 108.034 85.8637 108.034 87.2329V90.8222H106.514V83.984H108.011V85.2062C108.169 84.8431 108.429 84.5333 108.761 84.3143C109.092 84.0953 109.48 83.9766 109.878 83.9724C110.008 83.9739 110.138 83.9829 110.267 83.9995V85.5272C110.028 85.4979 109.788 85.4811 109.547 85.477Z" fill="#1D1D1B"/>
</g>
<defs>
<clipPath id="clip0">
<rect width="133" height="91" fill="white"/>
</clipPath>
</defs>
</svg>

<svg width="133" height="91" viewBox="0 0 133 91" fill="none" xmlns="http://www.w3.org/2000/svg"><g clip-path="url(#clip0)" fill="#1D1D1B"><path d="M110.138 36.252c-.459 0-.926 0-1.389.043-.98-11.51-10.836-20.5-22.527-20.5-3.107.005-6.18.64-9.032 1.865A27.985 27.985 0 0066.84 4.823 28.225 28.225 0 0051.019 0C35.51 0 22.893 12.493 22.893 27.848c0 .425 0 .858.035 1.295a26.62 26.62 0 00-16.36 8.782A26.343 26.343 0 000 55.22a26.054 26.054 0 004.52 14.752 26.278 26.278 0 0012.092 9.657c2.63 1.067 7.297 1.675 7.693.773.16-.36-.237-.734-1.28-1.21a53.201 53.201 0 01-7.778-4.309c-4.963-3.48-7.58-7.066-8.9-9.453A21.973 21.973 0 013.89 55.22a22.473 22.473 0 016.17-15.394 22.72 22.72 0 0115.085-7.04 1.952 1.952 0 001.37-.69 1.93 1.93 0 00.44-1.463 24.182 24.182 0 01-.172-2.785c0-13.22 10.89-23.98 24.235-23.98A24.462 24.462 0 0165.43 8.615a24.239 24.239 0 018.789 12.31 1.93 1.93 0 001.137 1.232 1.954 1.954 0 001.679-.11 18.818 18.818 0 0118.586.142 18.686 18.686 0 016.794 6.767 18.565 18.565 0 012.523 9.226v.228a1.917 1.917 0 00.671 1.485 1.946 1.946 0 001.573.45 19.487 19.487 0 012.96-.229c5.02-.011 9.84 1.96 13.401 5.48a18.786 18.786 0 015.587 13.294c0 6.13-3.415 12.435-8.358 15.552-2.334 1.513-2.377 1.799-8.335 4.738-.669.329-1.408.774-1.194 1.234.143.317.812.456 1.742.456a19.652 19.652 0 006.351-1.245 22.696 22.696 0 0011.151-10.367 22.507 22.507 0 002.051-15.042 22.607 22.607 0 00-7.974-12.945 22.827 22.827 0 00-14.407-5.019h-.019z"/><path d="M30.569 69.913c-.086-.657-.564-1.427-1.346-1.427-1.19 0-1.525 1.118-1.525 2.506 0 1.389.39 2.526 1.51 2.526.843 0 1.31-.75 1.407-1.389h3.054c-.335 2.193-2.023 4.116-4.594 4.116-3.111 0-4.757-2.14-4.757-5.233 0-3.095 1.922-5.26 4.773-5.26 2.621 0 4.243 1.957 4.527 4.153l-3.05.008zm4.355 6.077V62.72h3.314v13.27h-3.314zm9.596-10.138c2.652 0 4.908 1.737 4.908 5.194 0 3.458-2.255 5.183-4.908 5.183-2.653 0-4.905-1.721-4.905-5.183 0-3.461 2.252-5.194 4.905-5.194zm0 7.647c.848 0 1.493-.62 1.493-2.453 0-1.833-.645-2.467-1.493-2.467-.848 0-1.49.638-1.49 2.467 0 1.83.646 2.441 1.49 2.441v.012zm9.115 2.731c-.995 0-1.84-.295-2.333-.972-.447-.588-.68-1.5-.68-3.129v-5.99h3.317v5.252c-.047.483.037.971.245 1.411a.959.959 0 00.832.387c.743 0 1.19-.53 1.19-1.996v-5.055h3.302v9.847h-3.306v-1.338a2.762 2.762 0 01-1.047 1.17c-.456.28-.984.423-1.52.412zM70.79 62.72v13.27h-3.315v-1.343a2.899 2.899 0 01-1.108 1.186 2.92 2.92 0 01-1.575.408c-1.992 0-3.89-1.76-3.89-5.164 0-3.403 1.906-5.14 3.89-5.14a2.92 2.92 0 011.575.406c.475.281.86.692 1.108 1.184V62.73l3.314-.012zm-6.348 8.346c0 1.392.599 2.433 1.556 2.433.956 0 1.61-.952 1.61-2.433 0-1.481-.68-2.414-1.61-2.414s-1.54 1.021-1.54 2.414h-.016zM28.95 86.556v-.128c0-1.16-.676-1.547-1.43-1.547a1.26 1.26 0 00-1.277.731 1.24 1.24 0 00-.108.507h-1.498c.105-1.4 1.268-2.356 2.933-2.356 1.665 0 2.944.75 2.905 2.94 0 .344-.023 1.16-.023 1.771-.008.778.06 1.556.202 2.321h-1.396a5.617 5.617 0 01-.124-.928c-.436.738-1.257 1.094-2.268 1.094-1.497 0-2.548-.8-2.548-2.05 0-1.667 2.132-2.1 4.633-2.355zm-3.017 2.355c0 .6.497.956 1.267.956 1.125 0 1.79-.573 1.79-1.73v-.521c-2.175.2-3.057.506-3.057 1.295zm7.601-5.778H32.01v-1.524h1.524v1.524zm0 7.7H32.01v-6.85h1.524v6.85zm4.75-5.356c-.96 0-1.513.387-1.513 1.756v3.59H35.25v-6.839h1.497v1.222a2.05 2.05 0 01.75-.892c.331-.219.72-.337 1.117-.342.13.002.26.01.39.028v1.527a6.868 6.868 0 00-.72-.05zm9.14.851a1.546 1.546 0 00-.572-.912 1.562 1.562 0 00-1.03-.322c-.946 0-1.805.7-1.805 2.32 0 1.621.87 2.321 1.765 2.321a1.59 1.59 0 001.085-.302 1.57 1.57 0 00.607-.943h1.486a3.138 3.138 0 01-1.14 1.835 3.17 3.17 0 01-2.06.671c-2 0-3.319-1.547-3.319-3.577 0-2.03 1.334-3.59 3.38-3.59a3.045 3.045 0 012.01.675 3.014 3.014 0 011.075 1.82l-1.482.004zM53.095 91c-1.68 0-3.396-1.106-3.396-3.578 0-2.471 1.715-3.589 3.396-3.589 1.68 0 3.391 1.122 3.391 3.59 0 2.467-1.715 3.577-3.391 3.577zm1.816-3.578c0-1.578-.86-2.355-1.816-2.355-.957 0-1.82.774-1.82 2.356 0 1.581.859 2.343 1.82 2.343.96 0 1.816-.766 1.816-2.355v.011zm6.439-3.589c1.664 0 2.333 1.067 2.333 2.707v4.301H62.16v-3.94c0-.93-.14-1.834-1.307-1.834-1.167 0-1.599.893-1.599 2.127v3.64h-1.525v-6.85h1.525v.955a2.254 2.254 0 012.096-1.106zm10.026-2.223v9.228H69.85v-.902a2.279 2.279 0 01-2.05 1.068c-1.625 0-2.994-1.389-2.994-3.59 0-2.2 1.369-3.577 2.995-3.577a2.294 2.294 0 012.05 1.067V81.61h1.524zm-4.983 5.8c0 1.451.732 2.356 1.743 2.356 1.011 0 1.778-.773 1.778-2.355 0-1.582-.778-2.344-1.778-2.344s-1.742.905-1.742 2.344zm8.219-4.277h-1.524v-1.524h1.525v1.524zm0 7.7h-1.524v-6.85h1.525v6.85zm3.458-8.655v1.806h1.38v1.106h-1.38v3.729c0 .7.166.866.816.866h.552v1.16H78.31c-1.47 0-1.766-.386-1.766-1.794v-3.96h-1.022v-1.1h1.022v-1.805l1.525-.008zm4.134.955H80.68v-1.524h1.524v1.524zm0 7.7H80.68v-6.85h1.524v6.85zm4.649.167c-1.68 0-3.396-1.106-3.396-3.578 0-2.471 1.715-3.589 3.396-3.589 1.68 0 3.383 1.122 3.383 3.578 0 2.456-1.707 3.59-3.383 3.59zm1.828-3.59c0-1.577-.86-2.355-1.817-2.355s-1.82.774-1.82 2.356c0 1.582.86 2.344 1.82 2.344.96 0 1.817-.754 1.817-2.344zm6.425-3.577c1.664 0 2.333 1.068 2.333 2.708v4.3h-1.524v-3.94c0-.929-.14-1.834-1.307-1.834-1.167 0-1.599.893-1.599 2.127v3.64h-1.525v-6.85h1.525v.955a2.235 2.235 0 012.097-1.106zm6.887 5.898c.778 0 1.42-.317 1.688-.955h1.501a3.091 3.091 0 01-1.172 1.64 3.123 3.123 0 01-1.939.576c-2.213 0-3.481-1.678-3.481-3.64 0-2.06 1.423-3.527 3.38-3.527 2.112 0 3.43 1.706 3.302 4.011h-5.146c.101 1.28 1 1.895 1.867 1.895zm1.715-3.005a1.712 1.712 0 00-1.085-1.593 1.742 1.742 0 00-.669-.124c-.47-.01-.926.164-1.268.485a1.77 1.77 0 00-.56 1.232h3.582zm5.839-1.249c-.96 0-1.513.387-1.513 1.756v3.59h-1.52v-6.839h1.497v1.222a2.064 2.064 0 011.867-1.234c.13.002.26.01.389.028v1.527a6.874 6.874 0 00-.72-.05z"/></g><defs><clipPath id="clip0"><path fill="#fff" d="M0 0h133v91H0z"/></clipPath></defs></svg>
